!!!OTL: Der geraechte Bruder Es sind drei schwarze Raben
!!!ARE: Europa, Mitteleuropa, Deutschland (BRD), Niederrhein, Grevenbroich, Wickrath
!!!YOR: 1, S. 292
!!    1842 aufgezeichnet (um 1800 entstanden ?)
!!!SCT: Q0028
!!!YEM: Copyright 1995, estate of Helmut Schaffrath.
**kern
*ICvox
*Ivox
*M6/8
*k[f#]
*G:
{8d
=1
4g
8g
8b
8g
8b
=2
4dd
8cc
4b}
{8dd
=3
8ee
8gg
8ee
8dd
8b
16g
16b
=4
4dd
8cc
4b
8r}
=5
{8.dd
16b
16dd
16b
4a
16g
16b
=6
8.dd
16b
16dd
16b
4a}
{16g
16b
=7
8.dd
16ee
16dd
16dd
8g
8b
8dd
=8
8dd
8cc
8a
4g}
==
!!!AGN: Ballade, Mord, Vergeltung
!! Kleinere Melodievarianten aus anderen Quellen abgedruckt.
!!!ONB: ESAC (Essen Associative Code) Database: BALLADE
!!!AMT: compound duple
!!!AIN: vox
!!!EED: Helmut Schaffrath
!!!EEV: 1.0
*-
